X:65
T:Ferry Bridge Clog
M:4/4
L:1/8
Z:abc by Bruce Osborne - bosborne@kos.net
K:D
AG|F>DA,>D F>Ad>A|G>FE>D C>EA>G|F>Ad>f g>fe>d|(3efe (3dcB (3ABA (3GFE|
F>DA,>D F>Ad>A|G>FE>D C>EA>G|F>Ad>f e>AB>c|d2f2 d2:|
|:cd|e>de>f g>fg>e|d>ef>g a>fd>f|g>fe>g f>ed>f|(3efe (3dcB (3ABA (3GFE|
F>A,D>F A>DF>A|G>FE>D C>EA>G|F>dA>F G>ge>c|d2f2 d2:|
